X:1
T:Andante
T:Andante
T:Andante
T:originally for Organ arranged for Flute, Violin, 2 Celli 
T:Johann Georg Herzog (1822-1909)
T:Arrangement by Felix Scharpf
T:twoflutes 2020 / Felix Scharpf / https://commons.wikimedia.org/wiki/File:Cl%C3%A9mentel_monet_in_seinen_gaerten_20009_1.jpg
T:twoflutes 2020 / Felix Scharpf / https://commons.wikimedia.org/wiki/File:Cl%C3%A9mentel_monet_in_seinen_gaerten_20009_1.jpg
T:twoflutes 2020 / Felix Scharpf / https://commons.wikimedia.org/wiki/File:Cl%C3%A9mentel_monet_in_seinen_gaerten_20009_1.jpg
T:twoflutes 2020 / Felix Scharpf / https://commons.wikimedia.org/wiki/File:Cl%C3%A9mentel_monet_in_seinen_gaerten_20009_1.jpg
C:Herzog, Johann Georg (1822-1909)
Z:twoflutes 2020 / Felix Scharpf / https://commons.wikimedia.org/wiki/File:Cl%C3%A9mentel_monet_in_seinen_gaerten_20009_1.jpg
%%score [ 1 2 3 4 ]
L:1/8
Q:1/8=130
M:3/8
K:G
V:1 treble nm="Flöte" snm="Fl."
V:2 treble nm="Violine" snm="Vl."
V:3 bass nm="Violoncello 1" snm="Vc. 1"
V:4 bass nm="Violoncello 2" snm="Vc. 2"
V:1
!mf! (DB)G- | G F2 | (GAc) | (B2 A) | (Ec)A- | A ^G2 | (edc) | (B>AG) | (g2 f) |!>(! (ged) | %10
 (e2 ^d) | (ecB) | A3- | A(B^c) | d3-!>)! |!mp! d3 |!mf! (c>ed/c/) | (BcA) | (dgc) |!>(! B3- | B3 | %21
 e3!>)! | (daf) | c3 | (Aec) | A2 (B/c/) | d2 G | (B2 A/G/) | G3 | z3 | z3 | z3 | z3 | %33
!mf! (d2 ^c) | (dFG) | (A2 B) | (PGFG) | F3- | F(fe) | (d2 e) | ^c3 | (BFB) |!>(! (cG^d) | (eBG) | %44
 e3- | e(ge)!>)! |!p! (^d3 |!<(! e3- | e3- | e)(cA) | (G2 A) | (cB!>!F/!>!G/ | E3)!<)! | %53
!mp! (F2 G) | (A2 B) |[Q:1/8=80]"_rit." (c[Q:1/8=70]d[Q:1/8=60]c) | !fermata!c3 | %57
[Q:1/8=130]"_a tempo" z2!mf! B | A/(e/d/c/B/A/) | B(c/B/A) | (def | g)(B^c | d3) | z3 | (bfa) | %65
"_cresc." (g/a/)(b/g/)(g/f/) | (a/b/)(c'/a/)(a/g/) | (c'/b/c'/)(c/e/g/) | %68
 (c'/b/c'/)[Q:1/8=100]"_poco rall."(c/[Q:1/8=90]_e/[Q:1/8=80]g/) | %69
!f! !fermata!c'2[Q:1/8=130]"_a tempo"!>(! (.a/.f/) | d2 e- | e(dc) | (BdF)!>)! |!mp! G3 | z3 | z3 | %76
!f! (g2 f) | (ged | ^c3) | (d2!>(! c | B3- | B2)!mp! (A | G3-!>)! |!<(! G3- | G3- | %85
 G)!<)![Q:1/8=80]!mf!"_rit."(c[Q:1/8=70]A |[Q:1/8=60] GF>G) | !fermata!G3 |] %88
V:2
!mf! D3- | D3- | DEC | (DGF | E3- | E3- | E)BA | (GFG) | z B2 |!>(! (G>AB) | z G2 | (E>FG-) | %12
 G2 F | (EFG) | (FAc)!>)! |!mp! B3 |!mf! A3 | G2 F | G2 (E/F/) |!>(! G3- | G3- | %21
 G(.A/.G/.F/.G/)!>)! | F z2 | z3 | z (cA) | F2 D- | D (G2- | G2 F | G3) | z3 | z3 | z3 | z3 | %33
 z (AG) | F D2 | (E2 F) | E2 ^C | (D2 ^C) | (Dd^c) | B3 | ^A3 | F3 |!>(! (G2 F) | G2 z | (GEF) | %45
 (G2 A)!>)! |!p! B3- |!<(! B3- | B3 | (cAF) | (E3- | E2 ^D | E3)!<)! | z!mp! (DE) | F3 | (G3 | %56
 !fermata!F3) | z3 | z3 |!mf! G2 F | G2 c | B G2 | F(.G/.A/.B/.G/) | c(.A/.B/.c/.A/) | (dcA) | %65
 B2 z | z3 | z3 | z z/ (c3/2 |!f! !fermata!d2)!>(! z | z z A | (cBA) | G2 D-!>)! |!mp! D3 | %74
!mf! (G2 F) | (GF/E/D) | z (GA) | (G>AB | A3- | A3) | G3- | G2 F | E3 |!mf! (G,!<(!D=F) | %84
 (!>!E/!>!D/!>!C/!>!B,/C- | C3- | C3)!<)! | !fermata!B,3 |] %88
V:3
!mf! (B,3 | A,3 | G,3- | G,)(B,/C/D) | C3- | C B,2 | (A,CE) | (D>CB,) | z (E^D) |!>(! (E>FG) | %10
 C2 B, | (C>DE) | (^C2 D) | (^CDE) | D3-!>)! |!mp! D3 |!mf! EA,D- | D2 z | z3 | %19
 z!f! B,!>(!(.G,/.F,/)!>)! |!mf! E,2 z | z2 A,- | A,3 | z (A,F) | C3- | C(.D/.C/.B,/.A,/) | %26
 (B,2 E) | (D2 C | B,3) |!f! (D2 ^C) | (DF,G,) | (A,2 B,) | (PG,F,G,) | (F,2 E,) | D, B,2 | %35
 (^C2 ^D) | E2 A, | (B,2 ^A,) | (B,D,E,) | (F,2 G,) | (PE,D,E,) | D,2 ^D, |!>(! E,2 B, | B,3- | %44
 B,3- | B,2 E!>)! |!p! (F3 |!<(! E3 | D3 | C3) | B,2 F, | (A,G,.B,/.A,/ | G,3)!<)! | z3 | %54
 z2!mp! D | (E3 | !fermata!C3) |!mf! (D,B,)G,- | G, F,2 | (G,A,C) | (B,CA,) | G, E2 | D3 | E D2- | %64
 D2 _E |!<(! (D2 C) | (E2 D) | G3- | G3!<)! |!f! !fermata!F2!>(! z | z2 G | (FGE) | (DB,C)!>)! | %73
!mp! B,3 | z (B,^D) | (ECB,) | z (DC) | (B,E/F/G | E3) | D3- | D2 z | B,3- | B,3 | %83
 z2!mf!!<(! (G,- | G,/=F,/E,/D,/E,- | E,3) | (_E,2 D,!<)! | !fermata!D,3) |] %88
V:4
!mf! G,,3 | (D,2 C,) | (B,,C,E,) | D,3 | z (A,,C,) | (E,2 D,) | C,3 | (D,2 G,) | z3 | z3 | z3 | %11
 z3 | z3 | z3 | z3 | (D,B,)G,- |!mf! G, F,2 | (G,A,C) | (B,2 A,) | G,2 z | %20
 z!f! G,!>(!(.E,/.D,/)!>)! |!mf! ^C,3 | D,3 | z3 | z3 | z3 | z2 C, | D,2 D,, | G,,3 | z3 | z3 | %31
 z3 | z3 | z3 | z3 | z3 | z3 | z3 | z3 | z3 | z3 | z3 |!>(! z3 | (E,2 ^D,) | (E,G,,A,,) | %45
 (B,,2 C,)!>)! |!mp! (A,,G,,A,,) |!<(! (G,,3 | ^G,,3 | A,,3 | B,,3- | B,,3) | E,,3!<)! | z3 | z3 | %55
 z3 |!mp! !fermata!A,3 | z3 | z3 | z3 | z3 | z3 |!mf! D,,D,G,,- | G,, F,,2 | (G,,A,,C,) | %65
!<(! (B,,2 A,,) | (C,2 B,,) | (E,3 | _E,3)!<)! |!f! !fermata!D,2!>(! z | z2 C, | (A,,B,,C,) | %72
 D,3!>)! |!mp! G,,3- | G,,3- | G,,3 | z (B,,A,,) | (E,C,A,,) | z (A,G,) |!f! F,(.D,/.E,/!>(!F,) | %80
 z (G,E,) | ^D,(.B,,/.^C,/D,) | E,3!>)! |!mf! B,,3 |!<(! C,3 | G,,3- | G,,3-!<)! | !fermata!G,,3 |] %88

